assets/icon1.svg

<?xml version="1.0" encoding="UTF-8"?>
<svg width="104px" height="104px" viewBox="0 0 104 104" version="1.1" xmlns="http://www.w3.org/2000/svg" xmlns:xlink="http://www.w3.org/1999/xlink">
    <!-- Generator: Sketch 54.1 (76490) - https://sketchapp.com -->
    <title>icon1</title>
    <desc>Created with Sketch.</desc>
    <g id="Landing-podcast" stroke="none" stroke-width="1" fill="none" fill-rule="evenodd">
        <g id="Landing-podcast_Mobile" transform="translate(-108.000000, -4125.000000)" fill-rule="nonzero">
            <g id="topicos" transform="translate(0.000000, 4004.000000)">
                <g id="1" transform="translate(0.000000, 108.000000)">
                    <g id="icon1" transform="translate(108.000000, 13.000000)">
                        <rect id="Rectangle" fill="#00F3BB" x="43.3333333" y="17.3333333" width="17.3333333" height="3.46666667"></rect>
                        <rect id="Rectangle" fill="#00F3BB" x="43.3333333" y="24.2666667" width="17.3333333" height="3.46666667"></rect>
                        <path d="M95.3333333,90.1333333 L95.3333333,76.2666667 C95.3333333,75.4970667 94.8254667,74.8193333 94.0853333,74.6026667 L53.7333333,62.8333333 L53.7333333,41.6 L65.8666667,41.6 C66.8252,41.6 67.6,40.8234667 67.6,39.8666667 L67.6,12.1333333 C67.6,11.674 67.418,11.232 67.0921333,10.9078667 L56.6921333,0.507866667 C56.368,0.182 55.9277333,0 55.4666667,0 L38.1333333,0 C37.1748,0 36.4,0.776533333 36.4,1.73333333 L36.4,39.8666667 C36.4,40.8234667 37.1748,41.6 38.1333333,41.6 L50.2666667,41.6 L50.2666667,62.8333333 L9.91466667,74.6026667 C9.17453333,74.8193333 8.66666667,75.4970667 8.66666667,76.2666667 L8.66666667,90.1333333 C8.66666667,90.9029333 9.17453333,91.5806667 9.91466667,91.7973333 L51.5146667,103.930667 C51.6741333,103.977467 51.8353333,104 52,104 C52.1646667,104 52.3258667,103.977467 52.4853333,103.930667 L94.0853333,91.7973333 C94.8254667,91.5806667 95.3333333,90.9029333 95.3333333,90.1333333 Z M57.2,5.9176 L61.6824,10.4 L57.2,10.4 L57.2,5.9176 Z M39.8666667,3.46666667 L53.7333333,3.46666667 L53.7333333,12.1333333 C53.7333333,13.0901333 54.5081333,13.8666667 55.4666667,13.8666667 L64.1333333,13.8666667 L64.1333333,38.1333333 L39.8666667,38.1333333 L39.8666667,3.46666667 Z M50.2666667,66.4438667 L50.2666667,75.5490667 L46.2921333,71.5745333 L43.8412,74.0254667 L50.7745333,80.9588 C51.1125333,81.2968 51.5562667,81.4666667 52,81.4666667 C52.4437333,81.4666667 52.8874667,81.2968 53.2254667,80.9588 L60.1588,74.0254667 L57.7078667,71.5745333 L53.7333333,75.5490667 L53.7333333,66.4438667 L87.4102667,76.2666667 L52,86.5938667 L16.5897333,76.2666667 L50.2666667,66.4438667 Z M12.1333333,78.5772 L50.2666667,89.7 L50.2666667,99.9561333 L12.1333333,88.8333333 L12.1333333,78.5772 Z M53.7333333,99.9561333 L53.7333333,89.7 L91.8666667,78.5772 L91.8666667,88.8333333 L53.7333333,99.9561333 Z" id="Shape" fill="#0000EC"></path>
                        <rect id="Rectangle" fill="#00F3BB" x="43.3333333" y="10.4" width="6.93333333" height="3.46666667"></rect>
                        <path d="M1.73333333,41.6 L13.8666667,41.6 C13.8666667,46.3788 17.7545333,50.2666667 22.5333333,50.2666667 L27.7333333,50.2666667 C30.6002667,50.2666667 32.9333333,52.5997333 32.9333333,55.4666667 L32.9333333,58.2157333 L28.9588,54.2412 L26.5078667,56.6921333 L33.4412,63.6254667 C33.7792,63.9634667 34.2229333,64.1333333 34.6666667,64.1333333 C35.1104,64.1333333 35.5541333,63.9634667 35.8921333,63.6254667 L42.8254667,56.6921333 L40.3745333,54.2412 L36.4,58.2157333 L36.4,55.4666667 C36.4,50.6878667 32.5121333,46.8 27.7333333,46.8 L22.5333333,46.8 C19.6664,46.8 17.3333333,44.4669333 17.3333333,41.6 L29.4666667,41.6 C30.4252,41.6 31.2,40.8234667 31.2,39.8666667 L31.2,12.1333333 C31.2,11.674 31.018,11.232 30.6921333,10.9078667 L20.2921333,0.507866667 C19.968,0.182 19.5277333,-9.23705556e-14 19.0666667,-9.23705556e-14 L1.73333333,-9.23705556e-14 C0.7748,-9.23705556e-14 -4.97379915e-14,0.776533333 -4.97379915e-14,1.73333333 L-4.97379915e-14,39.8666667 C-4.97379915e-14,40.8234667 0.7748,41.6 1.73333333,41.6 Z M20.8,5.9176 L25.2824,10.4 L20.8,10.4 L20.8,5.9176 Z M3.46666667,3.46666667 L17.3333333,3.46666667 L17.3333333,12.1333333 C17.3333333,13.0901333 18.1081333,13.8666667 19.0666667,13.8666667 L27.7333333,13.8666667 L27.7333333,38.1333333 L3.46666667,38.1333333 L3.46666667,3.46666667 Z" id="Shape" fill="#0000EC"></path>
                        <rect id="Rectangle" fill="#00F3BB" x="6.93333333" y="17.3333333" width="17.3333333" height="3.46666667"></rect>
                        <rect id="Rectangle" fill="#00F3BB" x="6.93333333" y="24.2666667" width="17.3333333" height="3.46666667"></rect>
                        <rect id="Rectangle" fill="#00F3BB" x="6.93333333" y="31.2" width="17.3333333" height="3.46666667"></rect>
                        <rect id="Rectangle" fill="#00F3BB" x="6.93333333" y="10.4" width="6.93333333" height="3.46666667"></rect>
                        <path d="M104,39.8666667 L104,12.1333333 C104,11.674 103.818,11.232 103.492133,10.9078667 L93.0921333,0.507866667 C92.768,0.182 92.3277333,-9.23705556e-14 91.8666667,-9.23705556e-14 L74.5333333,-9.23705556e-14 C73.5748,-9.23705556e-14 72.8,0.776533333 72.8,1.73333333 L72.8,39.8666667 C72.8,40.8234667 73.5748,41.6 74.5333333,41.6 L86.6666667,41.6 C86.6666667,44.4669333 84.3336,46.8 81.4666667,46.8 L76.2666667,46.8 C71.4878667,46.8 67.6,50.6878667 67.6,55.4666667 L67.6,58.2157333 L63.6254667,54.2412 L61.1745333,56.6921333 L68.1078667,63.6254667 C68.4458667,63.9634667 68.8896,64.1333333 69.3333333,64.1333333 C69.7770667,64.1333333 70.2208,63.9634667 70.5588,63.6254667 L77.4921333,56.6921333 L75.0412,54.2412 L71.0666667,58.2157333 L71.0666667,55.4666667 C71.0666667,52.5997333 73.3997333,50.2666667 76.2666667,50.2666667 L81.4666667,50.2666667 C86.2454667,50.2666667 90.1333333,46.3788 90.1333333,41.6 L102.266667,41.6 C103.2252,41.6 104,40.8234667 104,39.8666667 Z M93.6,5.9176 L98.0824,10.4 L93.6,10.4 L93.6,5.9176 Z M76.2666667,38.1333333 L76.2666667,3.46666667 L90.1333333,3.46666667 L90.1333333,12.1333333 C90.1333333,13.0901333 90.9081333,13.8666667 91.8666667,13.8666667 L100.533333,13.8666667 L100.533333,38.1333333 L76.2666667,38.1333333 Z" id="Shape" fill="#0000EC"></path>
                        <rect id="Rectangle" fill="#00F3BB" x="79.7333333" y="17.3333333" width="17.3333333" height="3.46666667"></rect>
                        <rect id="Rectangle" fill="#00F3BB" x="79.7333333" y="24.2666667" width="17.3333333" height="3.46666667"></rect>
                        <rect id="Rectangle" fill="#00F3BB" x="79.7333333" y="31.2" width="17.3333333" height="3.46666667"></rect>
                        <rect id="Rectangle" fill="#00F3BB" x="79.7333333" y="10.4" width="6.93333333" height="3.46666667"></rect>
                        <rect id="Rectangle" fill="#00F3BB" x="43.3333333" y="31.2" width="3.46666667" height="3.46666667"></rect>
                        <rect id="Rectangle" fill="#00F3BB" x="50.2666667" y="31.2" width="3.46666667" height="3.46666667"></rect>
                        <rect id="Rectangle" fill="#00F3BB" x="57.2" y="31.2" width="3.46666667" height="3.46666667"></rect>
                    </g>
                </g>
            </g>
        </g>
    </g>
</svg>

<svg xmlns="http://www.w3.org/2000/svg" viewBox="0 0 104 104">
  <g fill="none" fill-rule="nonzero">
    <path fill="#00F3BB" d="M43.333 17.333h17.333V20.8H43.333zM43.333 24.267h17.333v3.467H43.333z"/>
    <path fill="#0000EC" d="M95.333 90.133V76.267c0-.77-.508-1.448-1.248-1.664l-40.352-11.77V41.6h12.134c.958 0 1.733-.777 1.733-1.733V12.133c0-.459-.182-.901-.508-1.225l-10.4-10.4A1.726 1.726 0 0055.467 0H38.133C37.175 0 36.4.777 36.4 1.733v38.134c0 .956.775 1.733 1.733 1.733h12.134v21.233L9.915 74.603a1.734 1.734 0 00-1.248 1.664v13.866c0 .77.508 1.448 1.248 1.664l41.6 12.134a1.711 1.711 0 00.97 0l41.6-12.134a1.734 1.734 0 001.248-1.664zM57.2 5.918l4.482 4.482H57.2V5.918zM39.867 3.467h13.866v8.666c0 .957.775 1.734 1.734 1.734h8.666v24.266H39.867V3.467zm10.4 62.977v9.105l-3.975-3.974-2.45 2.45 6.933 6.934a1.729 1.729 0 002.45 0l6.934-6.934-2.451-2.45-3.975 3.974v-9.105l33.677 9.823L52 86.594 16.59 76.267l33.677-9.823zM12.133 78.577L50.267 89.7v10.256L12.133 88.833V78.577zm41.6 21.38V89.7l38.134-11.123v10.256L53.733 99.956z"/>
    <path fill="#00F3BB" d="M43.333 10.4h6.933v3.467h-6.933z"/>
    <path fill="#0000EC" d="M1.733 41.6h12.134c0 4.779 3.888 8.667 8.666 8.667h5.2c2.867 0 5.2 2.333 5.2 5.2v2.749L28.96 54.24l-2.451 2.451 6.933 6.933a1.729 1.729 0 002.451 0l6.933-6.933-2.45-2.45-3.975 3.974v-2.75c0-4.778-3.888-8.666-8.667-8.666h-5.2a5.206 5.206 0 01-5.2-5.2h12.134c.958 0 1.733-.777 1.733-1.733V12.133c0-.459-.182-.901-.508-1.225l-10.4-10.4A1.726 1.726 0 0019.067 0H1.733C.775 0 0 .777 0 1.733v38.134c0 .956.775 1.733 1.733 1.733zM20.8 5.918l4.482 4.482H20.8V5.918zM3.467 3.467h13.866v8.666c0 .957.775 1.734 1.734 1.734h8.666v24.266H3.467V3.467z"/>
    <path fill="#00F3BB" d="M6.933 17.333h17.333V20.8H6.933zM6.933 24.267h17.333v3.467H6.933zM6.933 31.2h17.333v3.467H6.933zM6.933 10.4h6.933v3.467H6.933z"/>
    <path fill="#0000EC" d="M104 39.867V12.133c0-.459-.182-.901-.508-1.225l-10.4-10.4A1.726 1.726 0 0091.867 0H74.533C73.575 0 72.8.777 72.8 1.733v38.134c0 .956.775 1.733 1.733 1.733h12.134c0 2.867-2.333 5.2-5.2 5.2h-5.2c-4.78 0-8.667 3.888-8.667 8.667v2.749l-3.975-3.975-2.45 2.451 6.933 6.933a1.729 1.729 0 002.45 0l6.934-6.933-2.45-2.45-3.975 3.974v-2.75c0-2.866 2.333-5.2 5.2-5.2h5.2c4.778 0 8.666-3.887 8.666-8.666h12.134c.958 0 1.733-.777 1.733-1.733zM93.6 5.917l4.482 4.483H93.6V5.918zM76.267 38.134V3.467h13.866v8.666c0 .957.775 1.734 1.734 1.734h8.666v24.266H76.267z"/>
    <path fill="#00F3BB" d="M79.733 17.333h17.333V20.8H79.733zM79.733 24.267h17.333v3.467H79.733zM79.733 31.2h17.333v3.467H79.733zM79.733 10.4h6.933v3.467h-6.933zM43.333 31.2H46.8v3.467h-3.467zM50.267 31.2h3.467v3.467h-3.467zM57.2 31.2h3.467v3.467H57.2z"/>
  </g>
</svg>
